X: 4
T: Rose Of Fylde, The
Z: ceolachan
S: https://thesession.org/tunes/7320#setting18846
R: strathspey
M: 4/4
L: 1/8
K: Edor
D3 E F3 A | B>AB<d E2 FE | D2 DE F3 A | B>de<f e2 dA | B>cd<B G3 B | A<dF<D E2 FA | B2 Bc BAFA | B2 E2 E2 :|B2 BA E3 F | A>FA<B A2 FE | D2 de f2 d2 | B>AB<d e2 dc | BcdB G3 B | A<dfg e2 dc | BAdA BAF<A | B2 E2 E2 FA |B2 BA E3 F | A>FA<B A2 FE | D2 de f2 d2 | B>AB<d e2 dc | B>cd>B G3 B | A<dFD E2 FA | B2 Bc BAFA | B2 E2 E2 ||
